icons/mobile/24/svg/plus-24.svg

<svg width="24" height="24" viewBox="0 0 24 24" fill="none" xmlns="http://www.w3.org/2000/svg">
<path d="M12.5 5C12.9832 5 13.375 5.39175 13.375 5.875V11.625H19.125C19.6082 11.625 20 12.0168 20 12.5C20 12.9832 19.6082 13.375 19.125 13.375H13.375V19.125C13.375 19.6082 12.9832 20 12.5 20C12.0168 20 11.625 19.6082 11.625 19.125V13.375H5.875C5.39175 13.375 5 12.9832 5 12.5C5 12.0168 5.39175 11.625 5.875 11.625H11.625V5.875C11.625 5.39175 12.0168 5 12.5 5Z" fill="black"/>
</svg>

<!-- This Source Code Form is subject to the terms of the Mozilla Public
   - License, v. 2.0. If a copy of the MPL was not distributed with this
   - file, You can obtain one at http://mozilla.org/MPL/2.0/. -->
<svg xmlns="http://www.w3.org/2000/svg" width="24" height="24" fill="none" viewBox="0 0 24 24">
    <path fill="#000" d="M12.5 5c.483 0 .875.392.875.875v5.75h5.75a.875.875 0 0 1 0 1.75h-5.75v5.75a.875.875 0 0 1-1.75 0v-5.75h-5.75a.875.875 0 0 1 0-1.75h5.75v-5.75c0-.483.392-.875.875-.875" />
</svg>
